X: 1657
T: Lady Love
C:Colin Charlton, Cookamidgera, NSW
B: australian traditional tunes wiki
M:2/4
L:1/8
Q: 1/4=100
K:G
V:1 
|:E|"G"D D2 G|B2 G2|"C"E E2 G|cB AG/2G/2|"D"FF2 A|
d2 d2|1 dd/2B/2 DB|"G"G2 G:|2 "D"dd/2B/2 dB|"G"G2A2||
|:"G"B/2d/2G GG|B/2d/2G GG|"C"c/2e/2A gf|g2 g2|"D"DD/2D/2 FF/2F/2|
AA d2|1 "G"B2 d/2B/2A/2G/2|"D"A2A2:|2 "D"G/2A/2D EF|"G"G2G||
% abcbook-tune_id 6342d53a178c2c2d62106ae0


% abcbook-boost 0
% abcbook-tablature 
% abcbook-transpose 
% abcbook-lastupdated 1665324376448
% abcbook-soundfonts 
% abcbook-repeats 1
% NFF Book 2017

